X: 22
T:O'Rahilly's March
R:March
Z:added by Alf 
M:2/4
L:1/8
Q:1/4=120
K:D
A/B/c|d3/2c/2 df|ed cB|A3/2B/2 AF|A3e|fd fa|gf ed|e2 A3/2B/2|A2 A/B/c|
d3/2c/2 df|ed cB|A3/2B/2 AF|A2 de|f/2g/2a f/2g/2a|A2 f3/2e/2|d2 d3/2c/2|d2:|
fg|af af|a2 g3/2f/2|ed ef|g2 fe|fd fa|gf ed|e2 A3/2B/2|A2 A/2B/2c|
d3/2c/2 df|ed cB|A3/2B/2 AF|A2 de|f/2g/2a f/2g/2a|A2 f3/2e/2|d2 d3/2c/2|d2:|
